svgs/sharp-regular/sim-card.svg

<svg xmlns="http://www.w3.org/2000/svg" viewBox="0 0 384 512"><!--! Font Awesome Pro 6.6.0 by @fontawesome - https://fontawesome.com License - https://fontawesome.com/license (Commercial License) Copyright 2024 Fonticons, Inc. --><path d="M48 48l0 416 288 0 0-316.1L236.1 48 48 48zM256 0L384 128l0 336 0 48-48 0L48 512 0 512l0-48L0 48 0 0 48 0 256 0zM80 240l64 0 0 80-64 0 0-80zm0 192l0-80 80 0 48 0 0 80L80 432zm224 0l-64 0 0-80 64 0 0 80zm0-192l0 80-80 0-48 0 0-80 128 0z"/></svg>

<svg xmlns="http://www.w3.org/2000/svg" viewBox="0 0 384 512"><!--! Font Awesome Pro 6.4.2 by @fontawesome - https://fontawesome.com License - https://fontawesome.com/license (Commercial License) Copyright 2023 Fonticons, Inc. --><path d="M48 48V464H336V147.9L236.1 48H48zM256 0L384 128V464v48H336 48 0V464 48 0H48 256zM80 240h64v80H80V240zm0 192V352h80 48v80H80zm224 0H240V352h64v80zm0-192v80H224 176V240H304z"/></svg>
